svg/color/celr.svg

<?xml version="1.0" encoding="UTF-8" ?>
<!DOCTYPE svg PUBLIC "-//W3C//DTD SVG 1.1//EN" "http://www.w3.org/Graphics/SVG/1.1/DTD/svg11.dtd">
<svg width="250pt" height="250pt" viewBox="0 0 250 250" version="1.1" xmlns="http://www.w3.org/2000/svg">
<g id="#ffffffff">
<path fill="#ffffff" opacity="1.00" d=" M 0.00 0.00 L 250.00 0.00 L 250.00 250.00 L 0.00 250.00 L 0.00 0.00 M 23.64 91.56 C 8.47 104.08 7.84 129.60 21.61 143.39 C 29.89 151.66 42.42 154.58 53.76 152.74 C 62.46 151.67 70.09 146.58 75.98 140.30 C 73.16 137.38 70.33 134.46 67.51 131.52 C 63.21 135.71 58.19 139.69 52.10 140.68 C 43.63 142.42 33.98 139.54 28.69 132.49 C 22.16 123.76 22.62 110.21 30.32 102.32 C 34.80 97.49 41.49 94.90 48.05 95.32 C 55.57 95.35 62.34 99.59 67.38 104.89 C 70.46 102.23 73.37 99.38 76.33 96.59 C 63.89 81.18 38.73 78.59 23.64 91.56 M 138.73 83.46 C 138.73 106.22 138.74 128.97 138.72 151.73 C 142.88 151.76 147.04 151.80 151.20 151.67 C 150.38 144.13 151.38 136.58 151.12 129.03 C 150.47 113.84 151.18 98.61 150.85 83.44 C 146.81 83.46 142.77 83.44 138.73 83.46 M 87.79 108.80 C 79.25 117.50 78.24 132.14 84.91 142.21 C 94.40 156.92 119.44 156.97 128.96 142.28 C 125.58 140.70 122.19 139.14 118.86 137.47 C 113.42 142.63 104.48 144.05 98.05 139.91 C 94.83 137.86 93.23 134.24 92.25 130.70 C 105.62 130.58 119.00 130.70 132.37 130.64 C 132.75 123.53 131.21 116.01 126.58 110.42 C 117.44 98.85 97.85 98.01 87.79 108.80 M 166.22 107.23 C 156.14 115.82 154.57 132.13 162.15 142.82 C 171.98 156.95 196.37 156.73 205.81 142.28 C 202.44 140.71 199.06 139.17 195.76 137.47 C 190.58 142.22 182.61 143.87 176.21 140.68 C 172.29 138.79 170.07 134.77 169.10 130.69 C 182.49 130.58 195.89 130.71 209.29 130.62 C 209.45 124.71 208.54 118.58 205.49 113.42 C 197.96 99.94 177.62 97.23 166.22 107.23 M 215.55 102.70 C 215.55 119.19 215.51 135.68 215.57 152.17 C 219.62 152.16 223.67 152.16 227.72 152.17 C 227.84 143.43 227.71 134.69 227.78 125.94 C 227.86 122.44 228.32 118.48 231.24 116.11 C 234.35 113.35 238.73 113.39 242.63 113.37 C 242.61 109.63 242.64 105.89 242.59 102.15 C 236.52 102.18 229.34 103.74 226.25 109.56 C 226.26 107.28 226.23 105.00 226.21 102.72 C 222.65 102.70 219.10 102.71 215.55 102.70 Z" />
<path fill="#ffffff" opacity="1.00" d=" M 92.95 121.12 C 94.48 117.01 97.64 113.30 102.02 112.21 C 109.14 109.98 118.04 113.57 120.10 121.12 C 115.40 121.16 110.70 121.14 106.00 121.15 C 101.65 121.14 97.30 121.16 92.95 121.12 Z" />
<path fill="#ffffff" opacity="1.00" d=" M 169.80 121.12 C 171.27 117.25 174.11 113.69 178.17 112.42 C 185.42 109.78 194.80 113.32 196.97 121.12 C 187.91 121.16 178.86 121.16 169.80 121.12 Z" />
</g>
<g id="#000000ff">
<path fill="#000000" opacity="1.00" d=" M 23.64 91.56 C 38.73 78.59 63.89 81.18 76.33 96.59 C 73.37 99.38 70.46 102.23 67.38 104.89 C 62.34 99.59 55.57 95.35 48.05 95.32 C 41.49 94.90 34.80 97.49 30.32 102.32 C 22.62 110.21 22.16 123.76 28.69 132.49 C 33.98 139.54 43.63 142.42 52.10 140.68 C 58.19 139.69 63.21 135.71 67.51 131.52 C 70.33 134.46 73.16 137.38 75.98 140.30 C 70.09 146.58 62.46 151.67 53.76 152.74 C 42.42 154.58 29.89 151.66 21.61 143.39 C 7.84 129.60 8.47 104.08 23.64 91.56 Z" />
<path fill="#000000" opacity="1.00" d=" M 138.73 83.46 C 142.77 83.44 146.81 83.46 150.85 83.44 C 151.18 98.61 150.47 113.84 151.12 129.03 C 151.38 136.58 150.38 144.13 151.20 151.67 C 147.04 151.80 142.88 151.76 138.72 151.73 C 138.74 128.97 138.73 106.22 138.73 83.46 Z" />
<path fill="#000000" opacity="1.00" d=" M 87.79 108.80 C 97.85 98.01 117.44 98.85 126.58 110.42 C 131.21 116.01 132.75 123.53 132.37 130.64 C 119.00 130.70 105.62 130.58 92.25 130.70 C 93.23 134.24 94.83 137.86 98.05 139.91 C 104.48 144.05 113.42 142.63 118.86 137.47 C 122.19 139.14 125.58 140.70 128.96 142.28 C 119.44 156.97 94.40 156.92 84.91 142.21 C 78.24 132.14 79.25 117.50 87.79 108.80 M 92.95 121.12 C 97.30 121.16 101.65 121.14 106.00 121.15 C 110.70 121.14 115.40 121.16 120.10 121.12 C 118.04 113.57 109.14 109.98 102.02 112.21 C 97.64 113.30 94.48 117.01 92.95 121.12 Z" />
<path fill="#000000" opacity="1.00" d=" M 166.22 107.23 C 177.62 97.23 197.96 99.94 205.49 113.42 C 208.54 118.58 209.45 124.71 209.29 130.62 C 195.89 130.71 182.49 130.58 169.10 130.69 C 170.07 134.77 172.29 138.79 176.21 140.68 C 182.61 143.87 190.58 142.22 195.76 137.47 C 199.06 139.17 202.44 140.71 205.81 142.28 C 196.37 156.73 171.98 156.95 162.15 142.82 C 154.57 132.13 156.14 115.82 166.22 107.23 M 169.80 121.12 C 178.86 121.16 187.91 121.16 196.97 121.12 C 194.80 113.32 185.42 109.78 178.17 112.42 C 174.11 113.69 171.27 117.25 169.80 121.12 Z" />
<path fill="#000000" opacity="1.00" d=" M 215.55 102.70 C 219.10 102.71 222.65 102.70 226.21 102.72 C 226.23 105.00 226.26 107.28 226.25 109.56 C 229.34 103.74 236.52 102.18 242.59 102.15 C 242.64 105.89 242.61 109.63 242.63 113.37 C 238.73 113.39 234.35 113.35 231.24 116.11 C 228.32 118.48 227.86 122.44 227.78 125.94 C 227.71 134.69 227.84 143.43 227.72 152.17 C 223.67 152.16 219.62 152.16 215.57 152.17 C 215.51 135.68 215.55 119.19 215.55 102.70 Z" />
</g>
</svg>

<?xml version="1.0" encoding="utf-8"?>
<!-- Generator: Adobe Illustrator 26.0.3, SVG Export Plug-In . SVG Version: 6.00 Build 0)  -->
<svg version="1.1" id="Layer_1" xmlns="http://www.w3.org/2000/svg" xmlns:xlink="http://www.w3.org/1999/xlink" x="0px" y="0px"
	 viewBox="0 0 250 250" style="enable-background:new 0 0 250 250;" xml:space="preserve">
<style type="text/css">
	.st0{fill:#FFFFFF;}
</style>
<circle class="st0" cx="125" cy="125.5" r="125"/>
<g id="_x23_ffffffff">
	<path class="st0" d="M92.9,121.1c1.5-4.1,4.7-7.8,9.1-8.9c7.1-2.2,16,1.4,18.1,8.9c-4.7,0-9.4,0-14.1,0
		C101.7,121.1,97.3,121.2,92.9,121.1z"/>
	<path class="st0" d="M169.8,121.1c1.5-3.9,4.3-7.4,8.4-8.7c7.2-2.6,16.6,0.9,18.8,8.7C187.9,121.2,178.9,121.2,169.8,121.1z"/>
</g>
<g id="_x23_000000ff">
	<path d="M23.6,91.6c15.1-13,40.2-10.4,52.7,5c-3,2.8-5.9,5.6-9,8.3c-5-5.3-11.8-9.5-19.3-9.6c-6.6-0.4-13.2,2.2-17.7,7
		c-7.7,7.9-8.2,21.4-1.6,30.2c5.3,7,14.9,9.9,23.4,8.2c6.1-1,11.1-5,15.4-9.2c2.8,2.9,5.7,5.9,8.5,8.8c-5.9,6.3-13.5,11.4-22.2,12.4
		c-11.3,1.8-23.9-1.1-32.1-9.4C7.8,129.6,8.5,104.1,23.6,91.6z"/>
	<path d="M138.7,83.5c4,0,8.1,0,12.1,0c0.3,15.2-0.4,30.4,0.3,45.6c0.3,7.6-0.7,15.1,0.1,22.6c-4.2,0.1-8.3,0.1-12.5,0.1
		C138.7,129,138.7,106.2,138.7,83.5z"/>
	<path d="M87.8,108.8c10.1-10.8,29.7-10,38.8,1.6c4.6,5.6,6.2,13.1,5.8,20.2c-13.4,0.1-26.7-0.1-40.1,0.1c1,3.5,2.6,7.2,5.8,9.2
		c6.4,4.1,15.4,2.7,20.8-2.4c3.3,1.7,6.7,3.2,10.1,4.8c-9.5,14.7-34.6,14.6-44.1-0.1C78.2,132.1,79.2,117.5,87.8,108.8 M92.9,121.1
		c4.4,0,8.7,0,13.1,0c4.7,0,9.4,0,14.1,0c-2.1-7.6-11-11.1-18.1-8.9C97.6,113.3,94.5,117,92.9,121.1z"/>
	<path d="M166.2,107.2c11.4-10,31.7-7.3,39.3,6.2c3,5.2,4,11.3,3.8,17.2c-13.4,0.1-26.8,0-40.2,0.1c1,4.1,3.2,8.1,7.1,10
		c6.4,3.2,14.4,1.5,19.5-3.2c3.3,1.7,6.7,3.2,10.1,4.8c-9.4,14.4-33.8,14.7-43.7,0.5C154.6,132.1,156.1,115.8,166.2,107.2
		 M169.8,121.1c9.1,0,18.1,0,27.2,0c-2.2-7.8-11.6-11.3-18.8-8.7C174.1,113.7,171.3,117.2,169.8,121.1z"/>
	<path d="M215.6,102.7c3.6,0,7.1,0,10.7,0c0,2.3,0,4.6,0,6.8c3.1-5.8,10.3-7.4,16.3-7.4c0.1,3.7,0,7.5,0,11.2c-3.9,0-8.3,0-11.4,2.7
		c-2.9,2.4-3.4,6.3-3.5,9.8c-0.1,8.8,0.1,17.5-0.1,26.2c-4.1,0-8.1,0-12.1,0C215.5,135.7,215.6,119.2,215.6,102.7z"/>
</g>
</svg>
